public/category/hover-1/scribble.svg

<svg width="124" height="103" viewBox="0 0 124 103" fill="none" xmlns="http://www.w3.org/2000/svg">
<path d="M5.16113 100.538C6.05201 84.3256 11.9579 68.626 21.7602 55.7356C26.6697 49.3189 32.2882 43.435 38.8382 38.6354C42.0765 36.2155 45.511 34.0466 49.0446 32.2184C52.1971 30.5626 56.1281 28.6188 59.8276 29.2678C64.1611 29.9788 65.7352 34.7567 66.8654 38.4318C67.9956 42.1069 68.9152 45.9049 69.3072 49.7946C70.0725 57.0868 69.387 65.1088 64.7192 71.0858C63.1041 73.1569 60.6226 75.8496 58.3038 73.3824C56.4341 71.4006 55.7199 68.0973 55.935 65.4478C56.4666 57.5321 61.9162 50.2191 67.1631 44.7513C74.3019 37.3167 82.852 31.1348 91.3308 25.3433C100.943 18.7908 110.941 12.9272 121.324 7.75233C125.676 5.56285 121.674 -0.788117 117.362 1.32806C106.274 6.83117 95.6441 13.0634 85.5223 20.1951C76.7285 26.3862 67.7499 33.0006 60.5326 41.0124C54.4306 47.776 48.3975 57.1065 48.6452 66.6435C48.8168 73.8003 53.7605 83.3885 62.2574 81.4722C71.3388 79.4476 75.458 67.3473 76.3139 59.2758C77.2628 50.2533 75.4043 40.2607 71.7749 32.0151C61.9797 9.97846 34.8358 32.2845 24.8438 42.8278C10.0901 58.3898 1.09746 79.3602 0.190486 100.813C0.13129 103.787 5.02138 103.658 5.16113 100.538Z" fill="white"/>
</svg>

<svg width="124" height="103" fill="none" xmlns="http://www.w3.org/2000/svg"><path d="M5.161 100.538c.891-16.212 6.797-31.912 16.6-44.802 4.909-6.417 10.527-12.301 17.077-17.1a73.743 73.743 0 0 1 10.207-6.418c3.152-1.655 7.083-3.6 10.783-2.95 4.333.71 5.907 5.489 7.037 9.164s2.05 7.473 2.442 11.363c.766 7.292.08 15.314-4.588 21.29-1.615 2.072-4.096 4.765-6.415 2.297-1.87-1.981-2.584-5.285-2.369-7.934.532-7.916 5.981-15.229 11.228-20.697 7.139-7.434 15.689-13.616 24.168-19.408a255.644 255.644 0 0 1 29.993-17.59c4.352-2.19.35-8.541-3.962-6.425-11.088 5.503-21.718 11.735-31.84 18.867-8.794 6.191-17.772 12.806-24.99 20.817-6.101 6.764-12.134 16.094-11.887 25.632.172 7.156 5.115 16.744 13.612 14.828 9.082-2.024 13.201-14.125 14.057-22.196.949-9.023-.91-19.015-4.54-27.26-9.794-22.038-36.938.269-46.93 10.812C10.09 58.39 1.097 79.36.19 100.813c-.059 2.974 4.831 2.845 4.971-.275z" fill="#fff"/></svg>
